X:1
T:The Hope of the Ages
T:E. Grace Updegraff
T:The Hope of the Ages
T:Public Domain
T:Public Domain
C:E. Grace Updegraff
Z:Public Domain
%%score ( 1 2 ) ( 3 4 )
L:1/8
M:4/4
K:Eb
V:1 treble 
V:2 treble 
V:3 bass 
V:4 bass 
V:1
 (3(B,C)D | E3 E G2 B2 | [Ge]4 [GB]2 [EG]>[EG] | [EA]2 [EG]2 [DF]2 [B,E]2 | %4
w: 1.~Je- * sus|comes, He comes in|through the ag- es|hoar- y Bless- èd|
w: 2.~Je- * sus|comes, the dead are|mor- tal pangs is|quak- ing; Stars are|
w: 3.~Je- * sus|comes, in clouds de-|strain- ing, so- row|end- ing, Brok- en|
w: 4.~Je- * sus|comes, all things re-|loud, His grace im-|plor- ing, Bow the|
 ([B,D]2 [=A,C]2) B,2 (3(B,D)F | [DB]3 [DB] [Fc]2 [Fc]2 | [Fd]4 [Ee]2 [Ge][Ec] | %7
w: hope * and thrill- * ing|ry, Hal- le- lu-|jah! Je- sus comes!|
w: fall- * ing, hea- * vens|ing, Hal- le- lu-|jah! Je- sus comes!|
w: ties * for- ev- * er|ing, Hal- le- lu-|jah! Je- sus comes!|
w: knee, * the King * a-|ing, Hal- le- lu-|jah! Je- sus comes!|
 [DB]3 [DB] [C=A]2 [Ec]2 | (D2 E2 [FB]2) ||"^Refrain" B>B | (z2 E>E B>)B c>B x/ | %11
w: ||||
w: ||||
w: Hope of all the|ag- * *|* past,|* * * kings, He comes|
w: ||||
 (z2 G>G [Ge]2) e>e | (z2 A>A e>)c B>G x5/2 | (z2 D>D D2) B,>B, | D>D F>F A>A D>D | %15
w: ||||
w: ||||
w: * * * ye saints|* * * a- wak- ing!|* * * light is|le- lu- jah! Je- sus comes! * *|
w: ||||
 E>E G>G B>B [^Fc]>[Fc] | [GB]3 [Ge] [Fe]2 [Ad]2 | [Ge]6 |] %18
w: |||
w: |||
w: |||
w: |||
V:2
 x2 | E3 E G2 B2 | x8 | x8 | x4 B,2 x2 | x8 | x8 | x8 | B4- x2 || B>B | (B4- E2) B<cB/ | %11
w: |glo- ry, E- choes|||sto-|||||||
w: |wak- ing, Earth with|||shak-|||||||
w: |scend- ing, Sins re-|||mend-||||es|King of|at * * last. Up,|
w: |stor- ing, Cry a-|||dor-|||||||
 (e4- e>)e x2 | (e6- A2) c<BG/ | F6 B,>B, | D>D F>F A>A D>D | E>E G>G B>B x2 | x8 | x6 |] %18
w: |||||||
w: |||||||
w: of * God|See * the morn- ing|break- ing! Hal-|||||
w: |||||||
V:3
 (3(B,,C,)D, | E,3 E, G,2 B,2 | [E,B,]4 [E,E]2 [E,B,]>[E,B,] | [E,C]2 [E,B,]2 [E,A,]2 [E,G,]2 | %4
 (F,2 E,2) [B,,D,]2 (3(B,,D,)F, | [F,,F,]3 [F,,F,] [F,=A,]2 [F,A,]2 | %6
 (B,2 A,2) [E,G,]2 [C,C][C,G,] | [F,,F,]3 [F,,F,] [F,,F,]2 [F,,F,]2 | (F,2 G,2 [B,,A,]2) || z2 | %10
 z2 ([E,G,]>[E,G,] [E,G,]2) z2 x/ | z2 ([E,B,]>[E,B,] [E,B,]2) z2 | %12
 z2 ([A,C]>[A,C] [A,C]2) z2 x5/2 | z2 ([B,,B,]>[B,,B,] [B,,B,]2) B,,>B,, | %14
 D,>D, F,>F, A,>A, D,>D, | E,>E, G,>G, B,>B, [=A,E]>[A,E] | [B,E]3 [B,E] [B,,B,]2 [B,,B,]2 | %17
 [E,B,]6 |] %18
V:4
 x2 | E,3 E, G,2 B,2 | x8 | x8 | F,2 E,2 x4 | x8 | B,,4 x4 | x8 | B,,4- x2 || x2 | x17/2 | x8 | %12
 x21/2 | x6 B,,>B,, | D,>D, F,>F, A,>A, D,>D, | E,>E, G,>G, B,>B, x2 | x8 | x6 |] %18

